X:1
T:Prisoner’s Song, LM
T:Prisoner’s Song, LM
T:Zimri Mullen Parvin, 1875
T:Public Domain Courtesy of the Cyber Hymnal™
C:Zimri Mullen Parvin, 1875
Z:Public Domain
Z:Courtesy of the Cyber Hymnal™
%%score ( 1 2 ) ( 3 4 )
L:1/8
Q:1/4=145
M:4/4
K:Bb
V:1 treble 
V:2 treble 
V:3 bass 
V:4 bass 
V:1
 [DF]4 | [DB]2 [Fd]2 [DB]2 [FA]2 | [FB]4 [EG]4 | [DF]4 [FB]4 | [Fc]2 [Fd]2 [Fe]2 [Fd]2 | %5
 [Fc]4 [=EB]4 | [FA]4 F4 | [DB]2 [Fd]2 [DB]2 [FA]2 | [FB]4 F4 | [EG]4 d2 c2 | %10
 [FB]2 [FA]2 [Fc]2 [FB]2 | [Fd]4 [Ec]4 | !fermata![DB]4 |] %13
V:2
 x4 | x8 | x8 | x8 | x8 | x8 | x4 (F2 E2) | x8 | x4 F4 | x4 G4 | x8 | x8 | x4 |] %13
V:3
 [B,,B,]4 | [B,,F,]2 [B,,B,]2 [B,,B,]2 [C,E]2 | [D,D]4 [E,B,]4 | [B,,B,]4 [D,B,]4 | %4
 [F,A,]2 B,2 [A,C]2 B,2 | [F,A,]4 [C,G,]4 | [F,,F,]4 [F,A,]4 | [B,,B,]2 [B,,B,]2 [B,,B,]2 [C,F,]2 | %8
 [D,B,]4 [D,B,]4 | [E,B,]4 [E,E]4 | [F,D]2 [F,C]2 [F,E]2 [F,D]2 | [F,B,]4 [F,A,]4 | %12
 !fermata![B,,B,]4 |] %13
V:4
 x4 | x8 | x8 | x8 | x2 B,2 B,2 x2 | x8 | x8 | x8 | x8 | x8 | x8 | x8 | x4 |] %13

